build/service/ArchiveOutline.svg

<svg xmlns="http://www.w3.org/2000/svg" fill="none" viewBox="0 0 24 24" focusable="false"><path d="M0 0H24V24H0z"/><path fill="#74767B" fill-rule="evenodd" d="M4 7C4 5.34315 5.34315 4 7 4L17 4C18.6569 4 20 5.34315 20 7L20 17C20 18.6569 18.6569 20 17 20L7 20C5.34315 20 4 18.6569 4 17L4 7ZM7 5.3L17 5.3C17.9389 5.3 18.7 6.06112 18.7 7L18.7 9.35L5.3 9.35L5.3 7C5.3 6.06112 6.06112 5.3 7 5.3ZM5.3 10.65L5.3 17C5.3 17.9389 6.06112 18.7 7 18.7L17 18.7C17.9389 18.7 18.7 17.9389 18.7 17L18.7 10.65L5.3 10.65ZM9.3501 14.1303C9.3501 13.7714 9.64111 13.4803 10.0001 13.4803L14.0001 13.4803C14.3591 13.4803 14.6501 13.7714 14.6501 14.1303C14.6501 14.4893 14.3591 14.7803 14.0001 14.7803L10.0001 14.7803C9.64111 14.7803 9.3501 14.4893 9.3501 14.1303Z"/></svg>

<svg xmlns="http://www.w3.org/2000/svg" fill="none" viewBox="0 0 24 24" focusable="false"><path fill="#74767B" fill-rule="evenodd" d="M4 7c0-1.66 1.34-3 3-3h10c1.65 0 3 1.34 3 3v10c0 1.65-1.35 3-3 3H7c-1.66 0-3-1.35-3-3zm3-1.7h10c.93 0 1.7.76 1.7 1.7v2.35H5.29V7c0-.94.77-1.7 1.71-1.7m-1.71 5.35V17c0 .93.77 1.7 1.71 1.7h10c.93 0 1.7-.77 1.7-1.7v-6.35zm4.06 3.48c0-.36.29-.65.65-.65h4c.35 0 .64.29.64.65 0 .35-.29.65-.64.65h-4c-.36 0-.65-.3-.65-.65"/></svg>
